public/assets/BG10.svg

<svg width="5736" height="1024" viewBox="0 0 5736 1024" fill="none" xmlns="http://www.w3.org/2000/svg">
<path d="M3176.3 118.782H3368.3L5735.32 1024.18H4957.94H3123.7H3068H2882.8H2825.2H2640.1H2582.5H2397.4H2339.8H2154.6H2097H1911.9H1854.3H1669.1H1613.1H0.285156L1368.8 118.782H1560.8L1401.5 0.181641H1459.1L1618.4 118.782H1810.8L1674.3 0.181641H1731.9L1868.4 118.782H2087.4L2057 0.181641H2114.6L2144.9 118.782H2339.8V0.181641H2397.4V118.782H2592.2L2622.5 0.181641H2680.1L2649.8 118.782H2868.7L3005.2 0.181641H3062.8L2926.3 118.782H3118.7L3278 0.181641H3335.6L3176.3 118.782Z" fill="#2E5A9C"/>
</svg>

<svg width="5736" height="1024" fill="none" xmlns="http://www.w3.org/2000/svg"><path d="M3176.3 118.782h192l2367.02 905.398H.285L1368.8 118.782h192L1401.5.182h57.6l159.3 118.6h192.4L1674.3.182h57.6l136.5 118.6h219L2057 .182h57.6l30.3 118.6h194.9V.182h57.6v118.6h194.8l30.3-118.6h57.6l-30.3 118.6h218.9L3005.2.182h57.6l-136.5 118.6h192.4L3278 .182h57.6l-159.3 118.6z" fill="#2E5A9C"/></svg>
